/* XPM */
static const char * const app_icon_xpm[] = {
/* columns rows colors chars-per-pixel */
"48 43 228 2 ",
"   c None",
".  c black",
"X  c #010101",
"o  c #040404",
"O  c #050505",
"+  c #070707",
"@  c #080808",
"#  c #090909",
"$  c #0A0A0A",
"%  c #0B0B0B",
"&  c #0C0C0C",
"*  c #0D0D0D",
"=  c #0E0E0E",
"-  c #0F0F0F",
";  c #101010",
":  c #111111",
">  c #121212",
",  c #131313",
"<  c #141414",
"1  c #151515",
"2  c #161616",
"3  c #171717",
"4  c #181818",
"5  c #191919",
"6  c #1A1A1A",
"7  c #1B1B1B",
"8  c #1D1D1D",
"9  c #1E1E1E",
"0  c #1F1F1F",
"q  c #202020",
"w  c #212121",
"e  c #222222",
"r  c #232323",
"t  c #242424",
"y  c #252525",
"u  c #262626",
"i  c #272727",
"p  c #282828",
"a  c #292929",
"s  c #2B2B2B",
"d  c #2C2C2C",
"f  c #2D2D2D",
"g  c #2E2E2E",
"h  c #2F2F2F",
"j  c #303030",
"k  c #313131",
"l  c #323232",
"z  c #333333",
"x  c #343434",
"c  c #353535",
"v  c #363636",
"b  c #373737",
"n  c #383838",
"m  c #393939",
"M  c #3A3A3A",
"N  c #3B3B3B",
"B  c #3C3C3C",
"V  c #3D3D3D",
"C  c #3E3E3E",
"Z  c #3F3F3F",
"A  c #404040",
"S  c #424242",
"D  c #434343",
"F  c #444444",
"G  c #454545",
"H  c #464646",
"J  c #474747",
"K  c #484848",
"L  c #494949",
"P  c #4A4A4A",
"I  c #4B4B4B",
"U  c #4C4C4C",
"Y  c #4D4D4D",
"T  c #4E4E4E",
"R  c #4F4F4F",
"E  c #505050",
"W  c #515151",
"Q  c #535353",
"!  c #545454",
"~  c #555555",
"^  c #565656",
"/  c #585858",
"(  c #595959",
")  c #5A5A5A",
"_  c #5B5B5B",
"`  c #5D5D5D",
"'  c #5E5E5E",
"]  c #5F5F5F",
"[  c #606060",
"{  c #616161",
"}  c #626262",
"|  c #646464",
" . c #676767",
".. c #686868",
"X. c #696969",
"o. c #6B6B6B",
"O. c #6C6C6C",
"+. c #6D6D6D",
"@. c #6E6E6E",
"#. c #6F6F6F",
"$. c #707070",
"%. c #717171",
"&. c #727272",
"*. c #747474",
"=. c #757575",
"-. c #777777",
";. c #787878",
":. c #797979",
">. c #7A7A7A",
",. c #7B7B7B",
"<. c #7C7C7C",
"1. c #7D7D7D",
"2. c #7F7F7F",
"3. c #808080",
"4. c #818181",
"5. c #828282",
"6. c #838383",
"7. c #848484",
"8. c #858585",
"9. c #868686",
"0. c #878787",
"q. c #888888",
"w. c #898989",
"e. c #8A8A8A",
"r. c #8B8B8B",
"t. c #8C8C8C",
"y. c #8D8D8D",
"u. c #8E8E8E",
"i. c #8F8F8E",
"p. c #8F8F8F",
"a. c #909090",
"s. c #919191",
"d. c #929292",
"f. c #939393",
"g. c #949494",
"h. c #959595",
"j. c #969696",
"k. c #979797",
"l. c #989898",
"z. c #999999",
"x. c #9A9A9A",
"c. c #9B9B9B",
"v. c #9C9C9C",
"b. c #9D9D9D",
"n. c #9E9E9E",
"m. c #9F9F9F",
"M. c #A0A0A0",
"N. c #A1A1A1",
"B. c #A3A3A3",
"V. c #A4A4A4",
"C. c #A5A5A5",
"Z. c #A6A5A6",
"A. c #A6A6A6",
"S. c #A7A7A7",
"D. c #A8A8A8",
"F. c #A9A9A9",
"G. c #AAAAAA",
"H. c #ABABAB",
"J. c #ACACAC",
"K. c #ADADAD",
"L. c #AEAEAE",
"P. c #AFAFAF",
"I. c #B0B0B0",
"U. c #B1B1B1",
"Y. c #B2B2B2",
"T. c #B3B3B3",
"R. c #B4B4B4",
"E. c #B5B5B5",
"W. c #B6B6B6",
"Q. c #B7B7B7",
"!. c #B8B8B8",
"~. c #B9B9B9",
"^. c #BABABA",
"/. c #BCBCBC",
"(. c #BDBDBD",
"). c #BEBEBE",
"_. c #BFBFBF",
"`. c #C0C0C0",
"'. c #C1C1C1",
"]. c #C2C2C2",
"[. c #C3C3C3",
"{. c #C4C4C4",
"}. c #C5C5C5",
"|. c #C6C6C6",
" X c #C7C7C7",
".X c #C8C8C8",
"XX c #C9C9C9",
"oX c #CACACA",
"OX c #CBCBCB",
"+X c #CCCCCC",
"@X c #CDCDCD",
"#X c #CECECE",
"$X c #CFCFCF",
"%X c #D0D0D0",
"&X c #D1D1D1",
"*X c #D2D2D2",
"=X c #D3D3D3",
"-X c #D4D4D4",
";X c #D5D5D5",
":X c #D6D6D6",
">X c #D7D7D7",
",X c #D8D8D8",
"<X c #D9D9D9",
"1X c #DADADA",
"2X c #DBDBDB",
"3X c #DDDDDD",
"4X c #DEDEDE",
"5X c #DFDFDF",
"6X c #E0E0E0",
"7X c #E1E1E1",
"8X c #E2E2E2",
"9X c #E3E3E3",
"0X c #E4E4E4",
"qX c #E6E6E6",
"wX c #E7E7E7",
"eX c #E9E9E9",
"rX c #EAEAEA",
"tX c #EBEBEB",
"yX c #EDEDED",
"uX c #EEEEEE",
"iX c #EFEFEF",
"pX c #F0F0F0",
"aX c #F2F2F2",
"sX c #F4F4F4",
"dX c #F9F9F9",
"fX c #FBFBFB",
"gX c #FEFEFE",
"hX c white",
/* pixels */
"                                                                                                ",
"                      a U U U L L L L L L L L J J J J J J J J J J J J v                         ",
"                    t /.eX6X6X6X5X5X5X5X1X1X1X1X1X>X>X>X>X*X*X*X*X#X#X1X)                       ",
"                  $ x.oXJ Z Z Z m m m m v v v v v z z z z d d d d d t >.>XZ                     ",
"                  X.5XL                                               $ h.].t                   ",
"                Z 1X-.                                                  9 R.S.:                 ",
"              9 /.S.:                                                     z #X3.+               ",
"            + p.#Xd                                                         U 1X[               ",
"            [ 6XW                                                             O.>XJ             ",
"          v >X2.                                                              $ s. Xa           ",
"        4 R.L.<                                                                 4 Y.D.<         ",
"        8.1Xv * < < < < < < < < < < < < < < < < < < < < < < < < < < < < < < < < * z >Xe.$       ",
"      m eXiXoXoXoXoX X X X XoX XoX X X XoX X X X X X X X X X X X X X X X X X X XoXoXeXiXS       ",
"      L aX/.m.m.m.m.m.m.x.x.x.x.x.x.h.h.h.h.h.h.s.s.s.s.p.p.p.p.p.p.e.e.e.e.e.e.8.8.m.iXU       ",
"      L eXJ .                                                                       z 5XL       ",
"      L qXS                                                                         v 1XJ       ",
"      L 6Xm                                                                         z >XS       ",
"      L 1Xd                                                                         d #XS       ",
"      L 6Xm           z m               +             :               $             a  XZ       ",
"      z 1XW         4 ~.S.          9 e.>.          z B.t           [ B.a           L R.9       ",
"        B.e.      + 8.hX5Xd       + e.hX#X4         O.hX .        v 6XhX>.        + B.3.        ",
"        W #Xd     ) sX6X1X$.      [ 6X>. XJ       < R.6X/.4     + h.hXoX Xe       J *Xm         ",
"        < /.S.* Z 5X5XU ) ~.a . ! 6X8.. -.p..     $./.S 1X$.    U aX].t S.3.    : L.L.$         ",
"          s.hXR.oXD.v     [ L.m.iXL.<   9 Y.-.v 2.*XU . 3.qX' L >XqXS   m #X$.a p.hXp.          ",
"          s.sXD.) *         X.*XL.d       W >X].L.!     e  XfXqX].)       [ >X6XeXfXs.          ",
"          s.R.$   + * : < < : e 4 < e 4     d a $         v 3.W <           z ' m Y.s.          ",
"          p.L.    >.R.D.D.L.L.Y.Y.Y.~.S.4                 . . . $ * * * : : +   . S.h.          ",
"          e.L.    D.S.m Z m m v z d U /.e               m D.L.L.L.L.Y.Y.R./.[     S.h.          ",
"          8.Y.    S.8.              v ~.e               ) 6XO.[ [ ' ' ) ! /.p.    S.s.          ",
"          3.Y.    B.e.              m /.t               ! oX<             h.s.    S.s.          ",
"          3.Y.    m.8..             z ].t               W oX9             s.x.    S.s.          ",
"          2.Y.    x.].-.3.8.e.s.h.x.Y.>Xa               W  X9             p.m.    S.s.          ",
"          >.Y.$    .Y.Y.Y.R.R.~.~.~./.B.9               U  X9             e.B.    S.s.          ",
"          -.Y.$     $ $ $ $ $ $ * * * *                 L  X9             8.D.    S.s.          ",
"          -.Y.$                                         L ].9             3.L.    S.h.          ",
"          $.R.$                                         J ].9             2.Y.$   S.s.          ",
"          O.R.*                                         S /.9             >.R.*   S.h.          ",
"          X.R.$                                         m /.4           . $./.$ . S.h.          ",
"          X./.e e e t t t a a a d d d z z z v v v m m m ' #X! ! [ O.2.e.h.#X>X! U ].s.          ",
"          ) 5X]./././.].].].]. X X X XoXoXoX#X#X#X#X#X*X>X6X1X5X6XqXqXqXqXqX6X1X1X6X2.          ",
"          < v m m m m m m m m m m v v v v v v v v v v v z z z z z z z z z d d d d z 4           ",
"                                                                                                ",
"                                                                                                "
};
